!!!OTL: 1225. Schlesische Sommerliedchen. / [Am Sonntag Laetare.]
!!!ARE: Europa, Mitteleuropa, Deutschland, Schlesien, Glogau
!!!SCT: E1225
!!!TXL: @@DE
!!!YEM: Copyright 1995, estate of Helmut Schaffrath.
**kern	**text
*ICvox	*
*M2/4	*
*k[b-]	*
*F:	*
=1	=1
!LO:TX:a:t=G.	!
!LO:TX:a:t=II. Aus der Glogauer Gegend (1879).	!
{8.cc	Ro-
16b-	-the
8a	Ro-
8b-	-ſen,
=2	=2
8.cc	ro-
16b-	-the
8a	Ro-
8b-/}	-ſen
=3	=3
{8cc	blü-
8cc	-hen
8cc	auf
8dd	dem
=4	=4
4cc	Sten-
8a}	-gel
{8a	Der
=5	=5
8.cc	Herr
16b-	iſt
8a	ſchön,
8b-	der
=6	=6
8.cc	Herr
16b-	iſt
8a	ſchön,
8b-/}	die
=7	=7
{8cc	Frau
8cc	iſt
8cc	wie
8dd	ein
=8	=8
4cc	En-
8a	-gel.
8r}	.
==	==
!!!AGN: Ansinge -, Brauchtums - Lied, Kirchen - Fest, Sommer - Tags - Lied
!!!ONB: ESAC (Essen Associative Code) Database: ERK3
!!!AMT: simple duple
!!!AIN: vox
!!!EED: Helmut Schaffrath
!!!EEV: 1.0
!!!GTL: Ansingelieder an Volks- und Kirchenfesten.
!!!URL-scan: https://rosdok.uni-rostock.de/mcrviewer/recordIdentifier/rosdok_ppn745177999/iview2/phys_0140.iview2?x=-128.77276441889308&y=788.5135317059467&scale=0.5870222003877485&rotation=0&layout=singlePageLayout
!!!ENC: Anna Maria Matuszewska
!!!EEV: 2024/12/27
*-	*-
